assets/image/cars-img4.svg

<svg width="46" height="37" viewBox="0 0 46 37" fill="none" xmlns="http://www.w3.org/2000/svg">
<path d="M4.28182 29.1481V29.0855L4.22556 29.0582C1.78991 27.8735 0.1 25.3351 0.1 22.4024V19.4029C0.0996264 17.006 0.712208 14.6507 1.87708 12.5695L6.18014 4.88735C7.83554 1.9337 10.9326 0.1 14.2621 0.1H31.7378C33.3781 0.102981 34.9888 0.546926 36.4076 1.38728C37.8265 2.22766 39.0035 3.43485 39.8199 4.88745L44.1229 12.5695C44.1229 12.5695 44.1229 12.5695 44.1229 12.5696C45.2854 14.6474 45.9 17.0092 45.9 19.4029V22.4023C45.8984 23.7964 45.5099 25.1614 44.7797 26.3393C44.0495 27.5172 43.0075 28.4597 41.7745 29.0581L41.7182 29.0855V29.1481V30.9358C41.7182 33.8244 39.4172 36.1692 36.5909 36.1692C33.7647 36.1692 31.4636 33.8244 31.4636 30.9358V29.8692V29.7692H31.3636H14.6364H14.5364V29.8692V30.9358C14.5364 33.8244 12.2353 36.1692 9.40909 36.1692C6.58284 36.1692 4.28182 33.8244 4.28182 30.9358V29.1481ZM7.82269 5.84981L7.82265 5.84988L3.52171 13.532C3.2728 13.9754 3.05562 14.4315 2.86594 14.9003L2.8103 15.0378H2.95864H43.0414H43.1897L43.1341 14.9003C42.9443 14.4314 42.7251 13.9732 42.4784 13.5321L42.4783 13.5321L38.1753 5.84991C38.1753 5.8499 38.1753 5.84988 38.1752 5.84987C36.8594 3.4978 34.3926 2.03549 31.7358 2.03549H14.2621H14.262C12.9543 2.03703 11.6702 2.39065 10.5396 3.06048C9.40895 3.73031 8.47184 4.69255 7.82269 5.84981ZM6.28698 29.6934L6.17273 29.6769V29.7924V30.9358C6.17273 32.7534 7.6228 34.2359 9.40909 34.2359C11.1954 34.2359 12.6455 32.7534 12.6455 30.9358V29.8692V29.7692H12.5455H7.31818C6.96793 29.7692 6.62353 29.7418 6.28698 29.6934ZM33.4545 29.7692H33.3545V29.8692V30.9358C33.3545 32.7534 34.8046 34.2359 36.5909 34.2359C38.3772 34.2359 39.8273 32.7534 39.8273 30.9358V29.7924V29.6762L39.7124 29.6935C39.3767 29.7439 39.0325 29.7692 38.6818 29.7692H33.4545ZM7.3181 27.8358H7.31818H38.6818C41.6223 27.8358 44.0091 25.3976 44.0091 22.4024V19.4029C44.0091 18.6089 43.929 17.8216 43.7751 17.0495L43.759 16.969H43.677H37.6364H37.5364V17.069V20.269C37.5364 20.5261 37.4363 20.7722 37.2587 20.9533C37.0813 21.1344 36.841 21.2357 36.5909 21.2357C36.3408 21.2357 36.1005 21.1344 35.9231 20.9533C35.7455 20.7722 35.6455 20.5261 35.6455 20.269V17.069V16.969H35.5455H10.4545H10.3545V17.069V20.269C10.3545 20.5261 10.2545 20.7722 10.0769 20.9533C9.89945 21.1344 9.65919 21.2357 9.40909 21.2357C9.159 21.2357 8.91873 21.1344 8.74126 20.9533C8.56372 20.7722 8.46364 20.5261 8.46364 20.269V17.069V16.969H8.36364H2.323H2.24096L2.22493 17.0495C2.07104 17.8216 1.99091 18.6111 1.99091 19.4029V22.4024L1.99091 22.4025C1.99204 23.8425 2.55318 25.2236 3.55175 26.2424C4.55038 27.2613 5.90493 27.8346 7.3181 27.8358Z" fill="white" stroke="#0D0D0D" stroke-width="0.2"/>
</svg>

<svg width="46" height="37" fill="none" xmlns="http://www.w3.org/2000/svg"><path d="M4.282 29.148v-.063l-.056-.027C1.79 27.874.1 25.335.1 22.402v-3c0-2.396.612-4.751 1.777-6.833L6.18 4.887C7.836 1.934 10.933.1 14.262.1h17.476a9.193 9.193 0 0 1 4.67 1.287 9.436 9.436 0 0 1 3.412 3.5l4.303 7.683a14.02 14.02 0 0 1 1.777 6.833v3a7.492 7.492 0 0 1-1.12 3.936 7.28 7.28 0 0 1-3.005 2.72l-.057.026v1.851c0 2.888-2.3 5.233-5.127 5.233-2.826 0-5.127-2.345-5.127-5.233v-1.167H14.536v1.167c0 2.888-2.3 5.233-5.127 5.233-2.826 0-5.127-2.345-5.127-5.233v-1.788ZM7.822 5.85l-4.3 7.682c-.25.443-.466.9-.656 1.368l-.056.138h40.38l-.056-.138c-.19-.469-.409-.927-.656-1.368L38.175 5.85c-1.316-2.352-3.782-3.815-6.44-3.815H14.263A7.317 7.317 0 0 0 10.54 3.06a7.506 7.506 0 0 0-2.717 2.79ZM6.288 29.693l-.114-.016v1.259c0 1.817 1.45 3.3 3.236 3.3 1.786 0 3.236-1.483 3.236-3.3v-1.167H7.319c-.35 0-.694-.027-1.031-.076Zm27.168.076h-.1v1.167c0 1.817 1.45 3.3 3.236 3.3 1.786 0 3.236-1.483 3.236-3.3v-1.26l-.115.018a6.94 6.94 0 0 1-1.03.075h-5.227ZM7.318 27.836h31.364c2.94 0 5.327-2.438 5.327-5.434v-3c0-.793-.08-1.58-.234-2.353l-.016-.08H37.537V20.269c0 .257-.1.503-.278.684a.935.935 0 0 1-1.336 0 .977.977 0 0 1-.278-.684V16.969H10.355V20.269c0 .257-.1.503-.278.684a.935.935 0 0 1-1.336 0 .978.978 0 0 1-.277-.684V16.969H2.24l-.016.08a12.051 12.051 0 0 0-.234 2.354v3a5.493 5.493 0 0 0 1.56 3.84 5.28 5.28 0 0 0 3.767 1.593Z" fill="#fff" stroke="#0D0D0D" stroke-width=".2"/></svg>
